material/.icons/material/home-account.svg

<svg xmlns="http://www.w3.org/2000/svg" viewBox="0 0 24 24"><path d="M12 3L2 12h3v8h14v-8h3L12 3m0 5.75A2.25 2.25 0 0114.25 11 2.25 2.25 0 0112 13.25 2.25 2.25 0 019.75 11 2.25 2.25 0 0112 8.75M12 15c1.5 0 4.5.75 4.5 2.25V18h-9v-.75c0-1.5 3-2.25 4.5-2.25z"/></svg>

<?xml version="1.0" encoding="UTF-8"?><!DOCTYPE svg PUBLIC "-//W3C//DTD SVG 1.1//EN" "http://www.w3.org/Graphics/SVG/1.1/DTD/svg11.dtd"><svg xmlns="http://www.w3.org/2000/svg" xmlns:xlink="http://www.w3.org/1999/xlink" version="1.1" id="mdi-home-account" width="24" height="24" viewBox="0 0 24 24"><path d="M12,3L2,12H5V20H19V12H22L12,3M12,8.75A2.25,2.25 0 0,1 14.25,11A2.25,2.25 0 0,1 12,13.25A2.25,2.25 0 0,1 9.75,11A2.25,2.25 0 0,1 12,8.75M12,15C13.5,15 16.5,15.75 16.5,17.25V18H7.5V17.25C7.5,15.75 10.5,15 12,15Z" /></svg>
